**kern	**kern	**dynam
*part1	*part1	*part1
*staff2	*staff1	*
*I"Piano	*	*
*clefF4	*clefG2	*
*k[f#c#g#]	*k[f#c#g#]	*
*M2/4	*M2/4	*
=1	=1	=1
[2FFF# [2FF#	((4c# 4f# 4a	p
.	4c# 4f# 4a	.
=	=	=
2FFF#_ 2FF#_	4d 4f# 4b	.
.	4B 4f# 4g#	.
=	=	=
4FFF#] 4FF#]	4A 4c# 4f#	.
4GGG# 4GG#	4B 4e	.
=	=	=
[2AAA [2AA	2A)) 2c#	.
=	=	=
2AAA_ 2AA_	(4e 4a 4cc#	.
.	4e 4a 4cc#	.
=	=	=
2AAA_ 2AA_	4f# 4a 4dd	.
.	4d 4a 4b	.
=	=	=
4AAA] 4AA]	4c# 4e 4a	.
4BBB 4BB	4B 4d 4f#	.
=	=	=
[2FFF# [2FF#	2c#) 2f# 2a	.
=	=	=
*-	*-	*-
!!!system-decoration: {(s1,s2)}
